X:1
T:Baveno, 87.87.87
T:Baveno, 87.87.87
T:Domenico Cimarosa, 1801
T:Public Domain Courtesy of the Cyber Hymnal™
C:Domenico Cimarosa, 1801
Z:Public Domain
Z:Courtesy of the Cyber Hymnal™
%%score ( 1 2 ) ( 3 4 )
L:1/8
Q:1/4=108
M:4/4
K:G
V:1 treble 
V:2 treble 
V:3 bass 
V:4 bass 
V:1
 D2 [DG]2 [DG]2 [DB]2 | [FA]3 [FB] [DG]2 [B,D]2 | [DA]2 [FB]2 G2 z x3 | [EB]2 [^DB]2 E4 | %4
 [DA]2 [Dd]2 [Ed]2 [E^c]2 | [FA]2 [Dc]2 [Dc]2 [DB]2 | [Ee]2 [Ed]2 c2 B2 | %7
 [EA]2 [EG]2 ([DF]2 [CE]2) | [B,D]2 [DG]2 [DG]2 [DB]2 | [FA]3 [FB] [DG]2 [DB]2 | %10
 [Ee]2 [Ed]2 c2 B2 | [FA]3 [FB] [DG]4 |] %12
V:2
 D2 x6 | x8 | x4 E3 c2 E | x4 E4 | x8 | x8 | x4 (ED) (DG) | x8 | x8 | x8 | x4 (ED) (DG) | x8 |] %12
V:3
 [G,B,]2 [G,B,]2 [G,B,]2 [G,B,]2 | [D,C]2 z C [G,B,]2 G,2 | [D,F,]2 [^D,F,]2 [E,B,]2 [A,,A,]2 x2 | %3
 [B,,F,]2 [B,,A,]2 [E,G,]4 | F,2 [F,A,]2 A,2 [A,,A,]2 | [D,A,]2 [F,A,]2 G,2 [G,,G,]2 | %6
 [C,G,]2 [E,^G,]2 A,2 =G,2 | [C,C]2 [C,B,]2 A,4 | [G,B,]2 [G,B,]2 [G,B,]2 [G,B,]2 | %9
 [D,C]3 [D,C] [G,B,]2 [G,B,]2 | [C,D]2 [E,^G,]2 A,2 =G,2 | [D,C]3 [D,C] [G,B,]4 |] %12
V:4
 x8 | x2 D,2 x G,2 x | x10 | x8 | F,2 A,2 x4 | x4 G,2 x2 | x4 (A,F,) G,2 | x4 (D,2 F,2) | x8 | x8 | %10
 x4 (A,F,) G,2 | x8 |] %12

